X:126 
T:McFarley's Reel 
F:file ID: cre.5/126mcfarl
B:CRE5.110 (Ril Mhic Fhearghaile)
N:First part is similar to "Maids of Castlebar".
L:1/8
M:4/4
Q:180
R:reel
K:D
Bc|dD (3DCD EDB,D|A,DFA BAFA|dDcD BDAF|EDAD BAFA|
dD (3DCD EDB,D|A,DFA BAFA|cdec dBAF|1 EDEF D2:|2 EDEF D2||
|:de|fgab afdg|fdad bdad|efga ge=cg|e=cgc acgc|
fgaf bagf|gfeg fdBc|dfec BdAF|1 EDEF D2:|2 EDEF HD4|]

%%%

